X: 4345
T: Boiling Hen, The
R: reel
M: 4/4
K: Edorian
B2|:E3F GFGA|B3e BAGA|B3e BAGA|BAGB AGFD|
E2EF GFGA|B3e BAGA|BAGB AGFD|1 E2 GF GF D2:|2 (E4 E2) (3FGA||
|:BeeB geBe|AddA fdAd|BeeB geBG|AdeA fAdA|BeeB geBe|
[1 fdAf dAdf|gefd edBd|edBG AGFA:|2 fdAd f2 fd|g2 (3gfe f2 (3fed|edBG AGFD||

